www/assets/icons/landslide.svg

<svg xmlns="http://www.w3.org/2000/svg" width="24" height="24" viewBox="0 0 24 24" fill='currentColor'><path d="m14.97 14.79-2.58-1.03-6.89 2.29-4-1.54v2.1l4 1.34zm-4.9-2.37L7.5 9h-6v3.61l4 1.34zM5.5 20.05l-4-1.33V23h20l-4.97-6.62zM16.5 7V2l-5-1-3 2v4l3 2zM18 8l-2.5 2v3l2.5 2 4.5-2V9z"/></svg>

<svg width="24" height="24" viewBox="0 0 24 24" xmlns="http://www.w3.org/2000/svg" fill='currentColor'><path d="M14.97 14.79L12.39 13.76L5.5 16.05L1.5 14.51V16.61L5.5 17.95L14.97 14.79Z"/><path d="M10.07 12.42L7.5 9H1.5V12.61L5.5 13.95L10.07 12.42Z"/><path d="M5.5 20.05L1.5 18.72V23H21.5L16.53 16.38L5.5 20.05Z"/><path d="M16.5 7V2L11.5 1L8.5 3V7L11.5 9L16.5 7Z"/><path d="M18 8L15.5 10V13L18 15L22.5 13V9L18 8Z"/></svg>
